packages/components/src/components/icon/appstore/ic-appstore-wallet-transactions.svg

<svg width="16" height="16" viewBox="0 0 16 16" fill="none" xmlns="http://www.w3.org/2000/svg">
<path d="M14.5 0C15.3284 0 16 0.671573 16 1.5V14.5C16 15.3284 15.3284 16 14.5 16H1.5C0.671573 16 0 15.3284 0 14.5V1.5C0 0.671573 0.671573 0 1.5 0H14.5ZM14.5 1H1.5C1.22386 1 1 1.22386 1 1.5V3H15V4H1V14.5C1 14.7761 1.22386 15 1.5 15H14.5C14.7761 15 15 14.7761 15 14.5V1.5C15 1.22386 14.7761 1 14.5 1ZM12.5 11C12.7761 11 13 11.2239 13 11.5C13 11.7761 12.7761 12 12.5 12H5.5C5.22386 12 5 11.7761 5 11.5C5 11.2239 5.22386 11 5.5 11H12.5ZM3.5 11C3.77614 11 4 11.2239 4 11.5C4 11.7761 3.77614 12 3.5 12C3.22386 12 3 11.7761 3 11.5C3 11.2239 3.22386 11 3.5 11ZM12.5 7C12.7761 7 13 7.22386 13 7.5C13 7.77614 12.7761 8 12.5 8H5.5C5.22386 8 5 7.77614 5 7.5C5 7.22386 5.22386 7 5.5 7H12.5ZM3.5 7C3.77614 7 4 7.22386 4 7.5C4 7.77614 3.77614 8 3.5 8C3.22386 8 3 7.77614 3 7.5C3 7.22386 3.22386 7 3.5 7Z" fill="#333333"/>
</svg>

<svg width="16" height="16" viewBox="0 0 16 16" fill="none" xmlns="http://www.w3.org/2000/svg"><path d="M14.5 0A1.5 1.5 0 0 1 16 1.5v13a1.5 1.5 0 0 1-1.5 1.5h-13A1.5 1.5 0 0 1 0 14.5v-13A1.5 1.5 0 0 1 1.5 0h13Zm0 1h-13a.5.5 0 0 0-.5.5V3h14v1H1v10.5a.5.5 0 0 0 .5.5h13a.5.5 0 0 0 .5-.5v-13a.5.5 0 0 0-.5-.5Zm-2 10a.5.5 0 0 1 0 1h-7a.5.5 0 0 1 0-1h7Zm-9 0a.5.5 0 1 1 0 1 .5.5 0 0 1 0-1Zm9-4a.5.5 0 0 1 0 1h-7a.5.5 0 0 1 0-1h7Zm-9 0a.5.5 0 1 1 0 1 .5.5 0 0 1 0-1Z" fill="#333"/></svg>
